svgs/solid/diagram-venn.svg

<svg xmlns="http://www.w3.org/2000/svg" viewBox="0 0 640 512"><!-- Font Awesome Pro 6.0.0-alpha2 by @fontawesome - https://fontawesome.com License - https://fontawesome.com/license (Commercial License) --><path d="M416 32C381.594 32 349.129 39.984 320 53.846C290.871 39.984 258.406 32 224 32C100.289 32 0 132.289 0 256S100.289 480 224 480C258.406 480 290.871 472.016 320 458.154C349.129 472.016 381.594 480 416 480C539.713 480 640 379.711 640 256S539.713 32 416 32ZM320 128.814C331.801 137.748 342.252 148.199 351.186 160H288.814C297.748 148.199 308.199 137.748 320 128.814ZM224 416C135.775 416 64 344.225 64 256S135.775 96 224 96C234.998 96 245.738 97.125 256.119 99.248C216.5 139.652 192 194.941 192 256S216.502 372.346 256.121 412.752C245.74 414.877 235 416 224 416ZM320 383.186C308.199 374.252 297.748 363.801 288.814 352H351.186C342.252 363.801 331.801 374.252 320 383.186ZM370.439 320H269.561C263.016 305.09 259.322 288.857 257.617 272H382.383C380.678 288.857 376.984 305.09 370.439 320ZM257.617 240C259.322 223.143 263.016 206.91 269.561 192H370.439C376.984 206.91 380.678 223.143 382.383 240H257.617Z"/></svg>

<svg xmlns="http://www.w3.org/2000/svg" viewBox="0 0 640 512"><!--! Font Awesome Pro 6.0.0-alpha3 by @fontawesome - https://fontawesome.com License - https://fontawesome.com/license (Commercial License) --><path d="M416 32c-34.41 0-66.87 7.999-96 21.86C290.9 39.1 258.4 32 224 32C100.3 32 0 132.3 0 256s100.3 224 224 224c34.41 0 66.87-7.999 96-21.86C349.1 472 381.6 480 416 480c123.7 0 224-100.3 224-224S539.7 32 416 32zM320 128.8C331.8 137.7 342.3 148.2 351.2 160H288.8C297.7 148.2 308.2 137.7 320 128.8zM224 416c-88.22 0-160-71.78-160-160s71.78-160 160-160c10.1 0 21.74 1.125 32.12 3.248C216.5 139.7 192 194.9 192 256s24.5 116.3 64.12 156.8C245.7 414.9 235 416 224 416zM320 383.2C308.2 374.3 297.7 363.8 288.8 352h62.37C342.3 363.8 331.8 374.3 320 383.2zM370.4 320H269.6c-6.545-14.91-10.24-31.14-11.94-48h124.8C380.7 288.9 376.1 305.1 370.4 320zM257.6 240c1.705-16.86 5.398-33.09 11.94-48h100.9c6.545 14.91 10.24 31.14 11.94 48H257.6z"/></svg>
